flaticon/essential/wifi.svg

<svg xmlns="http://www.w3.org/2000/svg" width="32" height="32" viewBox="0 0 24 24">
    <path d="M 23.871094 8.359375 C 20.707031 5.191406 16.488281 3.449219 12 3.449219 C 7.511719 3.449219 3.292969 5.191406 0.128906 8.359375 C -0.0429688 8.53125 -0.0429688 8.804688 0.128906 8.976562 C 0.300781 9.148438 0.574219 9.148438 0.746094 8.976562 C 3.746094 5.976562 7.742188 4.324219 12 4.324219 C 16.257812 4.324219 20.253906 5.976562 23.253906 8.976562 C 23.339844 9.0625 23.449219 9.105469 23.5625 9.105469 C 23.675781 9.105469 23.785156 9.0625 23.871094 8.976562 C 24.042969 8.804688 24.042969 8.527344 23.871094 8.359375 Z M 23.871094 8.359375"/>
    <path d="M 2.699219 10.925781 C 2.527344 11.097656 2.527344 11.375 2.699219 11.546875 C 2.78125 11.628906 2.894531 11.671875 3.007812 11.671875 C 3.117188 11.671875 3.230469 11.628906 3.316406 11.546875 C 8.105469 6.757812 15.894531 6.757812 20.683594 11.546875 C 20.855469 11.714844 21.132812 11.714844 21.300781 11.546875 C 21.472656 11.375 21.472656 11.097656 21.300781 10.925781 C 16.171875 5.796875 7.828125 5.796875 2.699219 10.925781 Z M 2.699219 10.925781"/>
    <path d="M12 10.710938C9.453125 10.710938 7.0625 11.703125 5.265625 13.496094 5.097656 13.667969 5.097656 13.945312 5.265625 14.113281 5.4375 14.285156 5.714844 14.285156 5.886719 14.113281 7.515625 12.484375 9.6875 11.585938 12 11.585938 14.3125 11.585938 16.484375 12.484375 18.113281 14.113281 18.199219 14.199219 18.3125 14.242188 18.425781 14.242188 18.535156 14.242188 18.648438 14.199219 18.734375 14.113281 18.902344 13.945312 18.902344 13.667969 18.734375 13.496094 16.9375 11.703125 14.546875 10.710938 12 10.710938zM12 14.824219C10.421875 14.824219 9.136719 16.109375 9.136719 17.6875 9.136719 19.265625 10.421875 20.550781 12 20.550781 13.578125 20.550781 14.863281 19.265625 14.863281 17.6875 14.863281 16.109375 13.578125 14.824219 12 14.824219zM12 19.675781C10.902344 19.675781 10.011719 18.785156 10.011719 17.6875 10.011719 16.589844 10.902344 15.699219 12 15.699219 13.097656 15.699219 13.988281 16.589844 13.988281 17.6875 13.988281 18.785156 13.097656 19.675781 12 19.675781zM12 19.675781"/>
</svg>

<svg xmlns="http://www.w3.org/2000/svg" width="32" height="32" viewBox="0 0 24 24">
    <path d="M23.871 8.36C20.707 5.19 16.488 3.45 12 3.45S3.293 5.19.129 8.36a.434.434 0 0 0 0 .617.434.434 0 0 0 .617 0c3-3 6.996-4.653 11.254-4.653 4.258 0 8.254 1.653 11.254 4.653a.432.432 0 0 0 .617 0 .434.434 0 0 0 0-.618zm0 0"/>
    <path d="M2.7 10.926a.439.439 0 0 0 0 .62.437.437 0 0 0 .308.126c.11 0 .222-.043.308-.125 4.79-4.79 12.579-4.79 17.368 0a.44.44 0 0 0 .617 0 .439.439 0 0 0 0-.621c-5.13-5.13-13.473-5.13-18.602 0zm0 0"/>
    <path d="M12 10.71a9.473 9.473 0 0 0-6.734 2.786.44.44 0 0 0 0 .617c.171.172.449.172.62 0A8.588 8.588 0 0 1 12 11.586c2.313 0 4.484.898 6.113 2.527a.44.44 0 0 0 .621 0 .44.44 0 0 0 0-.617A9.473 9.473 0 0 0 12 10.711zm0 0M12 14.824a2.867 2.867 0 0 0-2.863 2.864A2.867 2.867 0 0 0 12 20.55a2.867 2.867 0 0 0 2.863-2.863A2.867 2.867 0 0 0 12 14.823zm0 4.852a1.989 1.989 0 1 1 .001-3.978A1.989 1.989 0 0 1 12 19.676zm0 0"/>
</svg>
